img/icons/file/file.svg

<svg fill="none" viewBox="0 0 16 16" xmlns="http://www.w3.org/2000/svg"><path d="m4 1c-1.1 0-2 0.895-2 2v10c0 1.1 0.895 2 2 2h8c1.1 0 2-0.895 2-2v-7.5c0-0.133-0.0527-0.26-0.146-0.354l-4-4c-0.0938-0.0938-0.221-0.146-0.354-0.146h-5.5zm-1 2c0-0.552 0.448-1 1-1h5v3.5c0 0.276 0.224 0.5 0.5 0.5h3.5v7c0 0.552-0.448 1-1 1h-8c-0.552 0-1-0.448-1-1v-10zm9.29 2-2.29-2.29v2.29h2.29z" clip-rule="evenodd" fill="#000" fill-rule="evenodd"/></svg>

<svg xmlns="http://www.w3.org/2000/svg" viewBox="0 0 16 16" fill="none">
  <path fill="#000" fill-rule="evenodd"
    d="M4 1a2 2 0 0 0-2 2v10a2 2 0 0 0 2 2h8a2 2 0 0 0 2-2V5.5a.5.5 0 0 0-.146-.353l-4-4A.5.5 0 0 0 9.5 1H4ZM3 3a1 1 0 0 1 1-1h5v3.5a.5.5 0 0 0 .5.5H13v7a1 1 0 0 1-1 1H4a1 1 0 0 1-1-1V3Zm9.293 2L10 2.707V5h2.293Z"
    clip-rule="evenodd" />
</svg>
